!!!!SEGMENT: pl-cz--d-ii-43--001_elsner-jozef--msza-pasterska-kyrie.krn
!!!cenid: 18xx:197
!!!COM: Elsner, Józef
!!!COM-rismID: pe30000957
!!!CDT: 1769/06/01-1854/04/18
!!!CNT: Polish
!!!OPR: Msza pasterska
!!!OTL: Kyrie
!!!OMV: 001
!!!OMD: KYRIE.
!!!PDT: 1843
!!!AGN: Sacred; Mass
!!!SMS-siglum: PL-CZ
!!!SMS-shelfmark: D II-43
!!!SMS-shelfwork: 001-001 M
!!!NIFC-rismSourceID:
!!!NIFC-islandoraID:
!!!URL-pdf-islandora:
!!!URL-scan:
!!!ONB-nifc: UWAGA: części Mszy: Kyrie, Gloria, Graduale, Credo, Offertorium, Sanctus, Benedictus, Agnus
!!!AIN: 1 bass 1 cello 1 organ 2 soprn 1 tenor
!!!key:
**kern	**kern	**dynam	**kern	**kern	**text	**text	**text	**kern	**text	**kern	**text	**kern	**text
*part6	*part6	*part6	*part5	*part4	*part4	*part4	*part4	*part3	*part3	*part2	*part2	*part1	*part1
*staff7	*staff6	*	*staff5	*staff4	*staff4	*staff4	*staff4	*staff3	*staff3	*staff2	*staff2	*staff1	*staff1
*Iorgan	*Iempty	*	*Icello	*Ibass	*	*	*	*Itenor	*	*Isoprn	*	*Isoprn	*
*I"Organo.	*	*	*I"Violoncello.	*I"Basso.	*	*	*	*I"Tenore.	*	*I"Soprano 2o	*	*I"Soprano 1o	*
*I'Org	*	*	*I'Vc	*I'B	*	*	*	*I'T.	*	*I'S II	*	*I'S I	*
*clefF4	*clefG2	*	*clefF4	*clefF4	*	*	*	*clefC4	*	*clefG2	*	*clefG2	*
*k[]	*k[]	*	*k[]	*k[]	*	*	*	*k[]	*	*k[]	*	*k[]	*
*a:	*a:	*	*a:	*a:	*	*	*	*a:	*	*a:	*	*a:	*
*M4/4	*M4/4	*	*M4/4	*M4/4	*	*	*	*M4/4	*	*M4/4	*	*M4/4	*
*met(c)	*met(c)	*	*met(c)	*met(c)	*	*	*	*met(c)	*	*met(c)	*	*met(c)	*
*>[A,A,B]	*>[A,A,B]	*	*>[A,A,B]	*>[A,A,B]	*	*	*	*>[A,A,B]	*	*>[A,A,B]	*	*>[A,A,B]	*
*>A	*>A	*	*>A	*>A	*	*	*	*>A	*	*>A	*	*>A	*
!	!LO:TX:a:Bi:t=Andantino	!	!LO:TX:a:Bi:t=Andantino	!	!	!	!	!	!	!	!	!LO:TX:a:Bi:t=Andantino.	!
4E\	4B/ 4d 4e 4g#X	.	4E\	4r	.	.	.	4r	.	4r	.	4r	.
=1	=1	=1	=1	=1	=1	=1	=1	=1	=1	=1	=1	=1	=1
!	!	!	!LO:TX:a:Bi:t=adlibitum	!	!	!	!	!	!	!	!	!	!
4AA/	4c/ 4e 4a	.	4AA/	1r	.	.	.	1r	.	1r	.	1r	.
4BB/	4d/ 4e 4g#X	.	4BB/	.	.	.	.	.	.	.	.	.	.
4C/	4A/ 4e 4a	.	4C/	.	.	.	.	.	.	.	.	.	.
4C#X/	4e/ 4gn 4a	.	4C#X/	.	.	.	.	.	.	.	.	.	.
=2	=2	=2	=2	=2	=2	=2	=2	=2	=2	=2	=2	=2	=2
*	*^	*	*	*	*	*	*	*	*	*	*	*	*
4D\	4f/ 4a	8d\L	.	4D/	2r	.	.	.	2r	.	2r	.	2r	.
.	.	8c\J	.	.	.	.	.	.	.	.	.	.	.	.
4D#X\	4B/ 4f#X 4a	4ryy	.	4D#X/	.	.	.	.	.	.	.	.	.	.
4E\	4B/ 4e 4g#X	2rAyy	.	4E\	4r	.	.	.	4r	.	4r	.	4r	.
4A\	4c/ 4e 4a	.	.	4A\	4A\	Z od-	Ze-	Spraw	4c\	Z od-	4e/	Z od-	4a\	Z od-
*	*v	*v	*	*	*	*	*	*	*	*	*	*	*	*
=3	=3	=3	=3	=3	=3	=3	=3	=3	=3	=3	=3	=3	=3
4G#X\	4d/ 4e 4b	.	4B\	4G#X\	-gło-	-bra-	Bo-	4d\	-gło-	4e/	-gło-	4b\	-gło-
4A\	4c/ 4e 4a	.	4A\	4A\	-sem	-ni	-że	4c\	-sem	4e/	-sem	4a\	-sem
4F\	4d/ 4a 4dd	.	4d\	4F\	wdzięcz-	dziś	byś-	4d\	wdzięcz-	4a/	wdzięcz-	4dd\	wdzięcz-
4E\	4e/ 4a 4cc	.	4c\	4E\	-nych	po-	-my	4e\	-nych	4a/	-nych	4cc\	-nych
=4	=4	=4	=4	=4	=4	=4	=4	=4	=4	=4	=4	=4	=4
*	*^	*	*	*	*	*	*	*	*	*	*	*	*
*	*	*^	*	*	*	*	*	*	*	*	*	*	*	*
4D\	2b/	4f\ 4a	4ryy	.	4B\	(4D\	pie-	-spo-	zgod-	(4f\	pie-	(4a/	pie-	2b\	pie-
4E\	.	8e\L 8g#X	4g#/	.	8e\L	4E\)	.	.	.	8e\L	.	4g#X/)	.	.	.
.	.	8d\J	.	.	8d\J	.	.	.	.	8d\J)	.	.	.	.	.
4F\	4a/	4c\	4ryy	.	4c\	4F\	-ni	-ła	-ni	4c\	-ni	4a/	-ni	4a\	-ni
8F\L	4cc/	4c\	8a\L	.	4A\	8F\L	Ku	Skła-	Jak	4A\	Ku	8a/L	Ku	4cc\	Ku
8E\J	.	.	8gn\J	.	.	8E\J	.	.	.	.	.	8gn/J	.	.	.
*	*	*v	*v	*	*	*	*	*	*	*	*	*	*	*	*
=5	=5	=5	=5	=5	=5	=5	=5	=5	=5	=5	=5	=5	=5	=5
!!LO:LB:g=original
2.D\	2.b-X/	2.d\ 2.f	.	4B-X\	4D\	to-	-da-	bra-	4B-X\	to-	4f/	to-	4b-X\	to-
.	.	.	.	4f\	4D\	-bie	-my	-cia	8d\L	-bie	4f/	-bie	4ff\	-bie
.	.	.	.	.	.	.	.	.	8c\J	.	.	.	.	.
.	.	.	.	8e\L	4D\	się	ci	wiecz-	4B-\	się	4f/	się	8ee\L	się
.	.	.	.	8d\	.	.	.	.	.	.	.	.	8dd\J	.
4D\	4d/ 4f 4b-	4ryy	.	8c\	4D\	wzno-	o-	-nie	4d\	wzno-	4f/	wzno-	8cc\L	wzno-
.	.	.	.	8B-\J	.	.	.	.	.	.	.	.	8b-\J	.
*	*v	*v	*	*	*	*	*	*	*	*	*	*	*	*
=6	=6	=6	=6	=6	=6	=6	=6	=6	=6	=6	=6	=6	=6
[2E\	(2c/ 2e 2a	.	8A\L	2E\	-sie-	-fia-	ży-	2c\	-sie-	2e/	-sie-	2a/	-sie-
.	.	.	8e\	.	.	.	.	.	.	.	.	.	.
.	.	.	8c\	.	.	.	.	.	.	.	.	.	.
.	.	.	8A\J	.	.	.	.	.	.	.	.	.	.
4E\]	4B/) 4e 4g#X	.	8G#X\L	4E\	-my	-ry	-li	4Bn\	-my	4e/	-my	4g#X/	-my
.	.	.	8E\	.	.	.	.	.	.	.	.	.	.
4A\	4c/ 4e 4a	.	8A\	4A\	Przez	Zied-	O-	4c\	Przez	4e/	Przez	4a/	Przez
.	.	.	8c\J	.	.	.	.	.	.	.	.	.	.
=7	=7	=7	=7	=7	=7	=7	=7	=7	=7	=7	=7	=7	=7
4G#X\	4d/ 4e 4b	.	8B\L	4G#X\	cie-	-ne-	-fia-	4d\	cie-	4e/	cie-	4bn/	cie-
.	.	.	8E\	.	.	.	.	.	.	.	.	.	.
4A\	4c/ 4e 4a	.	8A\	4A\	-bie	-go	-ry	4c\	-bie	4e/	-bie	4a/	-bie
.	.	.	8c\J	.	.	.	.	.	.	.	.	.	.
4F\	4d/ 4a 4dd	.	8d\L	4F\	wy-	Oy-	two-	4d\	wy-	4a/	wy-	4dd\	wy-
.	.	.	8A\	.	.	.	.	.	.	.	.	.	.
4E\	4e/ 4a 4cc	.	8c\	4E\	-ba-	-ca	-iej	4A\	-ba-	4a/	-ba-	4cc\	-ba-
.	.	.	8A\J	.	.	.	.	.	.	.	.	.	.
=8	=8	=8	=8	=8	=8	=8	=8	=8	=8	=8	=8	=8	=8
*	*^	*	*	*	*	*	*	*	*	*	*	*	*
*	*	*^	*	*	*	*	*	*	*	*	*	*	*	*
!	!	!	!	!LO:HP:a	!	!	!	!	!	!	!	!	!	!	!
2D/	(2ff/	4a\	2ryy	>	(8f\L	2D\	-wie-	sto-	go-	(4A\	-wie-	(4a/	-wie-	2ff\	-wie-
.	.	.	.	.	8A\	.	.	.	.	.	.	.	.	.	.
.	.	4g#X\ 4b	.	.	8G#X\	.	.	.	.	4Bn\)	.	4g#X/)	.	.	.
.	.	.	.	]	8f\J)	.	.	.	.	.	.	.	.	.	.
4C/	4ee/)	4a\	4ryy	.	8e\L	4C/	-ni	-łu	-dni	4E/	-ni	4a/	-ni	4ee\	-ni
.	.	.	.	.	8c\	.	.	.	.	.	.	.	.	.	.
4C#X/	4ee/	4e\	8a/L	.	8e\	4C#X/	Twój	ied-	Na-	4A\	Twój	8a/L	Twój	4ee\	Twój
.	.	.	8gn/J	.	8A\J	.	.	.	.	.	.	8gn/J	.	.	.
*	*	*v	*v	*	*	*	*	*	*	*	*	*	*	*	*
=9	=9	=9	=9	=9	=9	=9	=9	=9	=9	=9	=9	=9	=9	=9
2D\	4dd/ 4ff	4f\ 4a	.	8f\L	4D\	Chri-	-na-	-u-	4A\	Chri-	4f/	Chri-	4ff\	Chri-
.	.	.	.	8A\	.	.	.	.	.	.	.	.	.	.
.	8a/L 8ee	4f\	.	8e\	4D\	-ste	-kie	-ki	8A\L	-ste	4f/	-ste	8ee\L	-ste
.	8bn/J 8dd	.	.	8d\J	.	.	.	.	8Bn\J	.	.	.	8dd\J	.
!LO:TX:a:t=P:problem=brak początku ligatury	!	!	!	!	!	!	!	!	!	!	!	!	!	!
[2E\	4a/ 4cc	4e\	.	8c\L	4E\	zgon	bie-	twe	8c\L	zgon	4e/	zgon	4cc\	zgon
.	.	.	.	8E\	.	.	.	.	8A\J	.	.	.	.	.
!	!	!LO:TX:b:t=P:problem=brak początku ligatury	!	!	!	!	!	!	!	!	!	!	!	!
.	4g#X/ 4b	[4e\	.	8B\	4E\	swię-	-rzem	peł-	4G#X\	swię	4e/	swię	4b\	swię-
.	.	.	.	8E\J	.	.	.	.	.	.	.	.	.	.
=10	=10	=10	=10	=10	=10	=10	=10	=10	=10	=10	=10	=10	=10	=10
!!LO:PB:g=original
*	*	*^	*	*	*	*	*	*	*	*	*	*	*	*
4E\]	2a/ 2cc	4e\]	2ryy	.	(8c\L	(4E\	-cie-	da-	-ni-	2A/	-cie-	(4e/	-cie-	2cc\	-cie-
.	.	.	.	.	8E\	.	.	.	.	.	.	.	.	.	.
4D#X\	.	4f#X\	.	.	8D#X\	4D#X\)	.	.	.	.	.	4f#X/	.	.	.
.	.	.	.	.	8c\J)	.	.	.	.	.	.	.	.	.	.
4E\	4g#X/ 4b	4e\	4ryy	.	8B\L	4E\	-my	-ry	-li	4E/	-my	4g#X/)	-my	4b\	-my
.	.	.	.	.	8E\	.	.	.	.	.	.	.	.	.	.
4C#X\	4ee/	4e\ 4a	8a/L	.	8e\	4C#X\	twój	ied-	Na-	4A/	twój	8a/L	twój	4ee\	twóy
.	.	.	8gn/J	.	8A\J	.	.	.	.	.	.	8gn/J	.	.	.
*	*	*v	*v	*	*	*	*	*	*	*	*	*	*	*	*
=11	=11	=11	=11	=11	=11	=11	=11	=11	=11	=11	=11	=11	=11	=11
2D\	4f\ 4a 4dd 4ff	4reyy	.	8f\L	4D\	Chri-	-na-	-u-	4A\	Chri-	4f/	Chri-	4ff\	Chri-
.	.	.	.	8A\	.	.	.	.	.	.	.	.	.	.
.	8a/L 8ee	4f\	.	8e\	4D\	-ste	-kie	-ki	8A\L	-ste	4f/	-ste	8ee\L	-ste
.	8bn/J 8dd	.	.	8d\J	.	.	.	.	8Bn\J	.	.	.	8dd\J	.
2E\	4e/ 4a 4cc	2reyy	.	8c\L	4E\	zgon	bie-	twe	4A\	zgon	4e/	zgon	4cc\	zgon
.	.	.	.	8E\	.	.	.	.	.	.	.	.	.	.
.	4d/ 4e 4g#X 4b	.	.	8B\	4E\	swię-	-rzem	peł-	4d\	swię-	4g#X/	swię-	4b\	swię-
.	.	.	.	8E\J	.	.	.	.	.	.	.	.	.	.
*	*v	*v	*	*	*	*	*	*	*	*	*	*	*	*
=12	=12	=12	=12	=12	=12	=12	=12	=12	=12	=12	=12	=12	=12
[2AA/	2d/ [2e 2g#X (>2b	.	(8B\L	2AA/	-cie-	da-	-ni-	2d\	-cie-	2g#X/	-cie-	2b\	-cie-
.	.	.	8e\J)	.	.	.	.	.	.	.	.	.	.
.	.	.	(16e\LL	.	.	.	.	.	.	.	.	.	.
.	.	.	16d\	.	.	.	.	.	.	.	.	.	.
.	.	.	16B\	.	.	.	.	.	.	.	.	.	.
.	.	.	16G#X\JJ)	.	.	.	.	.	.	.	.	.	.
4AA/]	4c/ 4e] 4a)	.	4A\	4AA/	-my.	-ry.	-li.	4c\	-my.	4a/	-my.	4a\	-my.
=:|!	=:|!	=:|!	=:|!	=:|!	=:|!	=:|!	=:|!	=:|!	=:|!	=:|!	=:|!	=:|!	=:|!
*>B	*>B	*	*>B	*>B	*	*	*	*>B	*	*>B	*	*>B	*
4E\	4B/ 4d 4e 4g#X	.	4E\	4r	.	.	.	4r	.	4r	.	4r	.
=13	=13	=13	=13	=13	=13	=13	=13	=13	=13	=13	=13	=13	=13
4AA/	4c/ 4e 4a	.	4AA/	1r	.	.	.	1r	.	1r	.	1r	.
4BB/	4d/ 4e 4g#X	.	4BB/	.	.	.	.	.	.	.	.	.	.
4C/	4A/ 4e 4a	.	4C/	.	.	.	.	.	.	.	.	.	.
4AA/	4e/ 4a 4cc	.	4AA/	.	.	.	.	.	.	.	.	.	.
=14	=14	=14	=14	=14	=14	=14	=14	=14	=14	=14	=14	=14	=14
*	*^	*	*	*	*	*	*	*	*	*	*	*	*
*	*	*^	*	*	*	*	*	*	*	*	*	*	*	*
4D/	4f/ 4b	8d\L	4ryy	.	4D\	1r	.	.	.	1r	.	1r	.	1r	.
.	.	8c\J	.	.	.	.	.	.	.	.	.	.	.	.	.
4D#X/	4a/	4B\	8f#X/L	.	4D#X\	.	.	.	.	.	.	.	.	.	.
.	.	.	8e/J	.	.	.	.	.	.	.	.	.	.	.	.
4E/	8a/L	2B\ 2dn	2ryy	.	4E\	.	.	.	.	.	.	.	.	.	.
.	8g#X/	.	.	.	.	.	.	.	.	.	.	.	.	.	.
4EE/	8f#/	.	.	.	4EE/	.	.	.	.	.	.	.	.	.	.
.	8g#/J	.	.	.	.	.	.	.	.	.	.	.	.	.	.
*	*v	*v	*v	*	*	*	*	*	*	*	*	*	*	*	*
=15	=15	=15	=15	=15	=15	=15	=15	=15	=15	=15	=15	=15	=15
!	!LO:SIC:s=2g#:v	!	!	!	!	!	!	!	!	!	!	!	!
[2AA/	((2B/ 2d [2e 2g	.	[2AA/	2r	.	.	.	2r	.	2r	.	2r	.
4AA/]	4c/)) 4e] 4a	.	4AA/]	4ryy	.	.	.	4ryy	.	4ryy	.	4ryy	.
==	==	==	==	==	==	==	==	==	==	==	==	==	==
*-	*-	*-	*-	*-	*-	*-	*-	*-	*-	*-	*-	*-	*-
!!!system-decoration: [s1,s2,s3,s4,s5{(s6,s7)}]
!!!RDF**kern: > = above
!!!RDF**kern: < = below
!!!ENC: Andrzej Kubiczek
!!!END: 2020-03-03
!!!ENC: Marta Lawrence
!!!END: 2020-04-03
!!!YEC: Copyright 2022 Narodowy Instytut Fryderyka Chopina (https://polishscores.org)
!!!YEM: Licence CC BY 4.0 (https://creativecommons.org/licenses/by/4.0)
